X:1
T:Title
%%score { ( 1 3 ) | ( 2 4 ) }
L:1/8
M:4/4
K:F
V:1 treble nm="Grand Piano"
V:3 treble 
V:2 bass 
V:4 bass 
V:1
 z4 z2[Q:1/4=100] [DB][_Ec] | [Fd]3 [Fd] [E^c]2 [G_e]2 | [Fd]4 [DB]2 [FB][Gc] | d3 c B2 c2 | %4
 [DB]6 [DB][_Ec] | [Fd]3 [Fd] [E^c]2 [G_e]2 | [Fd]4 [DB]2 [Fd][Fd] | [Ed]3 [Ec] [Ec]2 [Ed]2 | %8
 [Fc]6 [DB][_Ec] | [Fd]3 [Fd] [E^c]2 [G_e]2 | [Fd]4 [DB]2 [FB][Gc] | d3 c B2 c2 | [DB]6 [FB][_AB] | %13
 [GB]3 [^FA] [GB]2 [G_e]2 |[M:9/8] d3- d f2- f[FB][Gc] |[M:4/4] d3 d d2 c2 | [DB]6 z2 | %17
 [Fd][E^c][Fd][Ec] [Fd]2 [G_e]2 | d4 B4 | [Fd][E^c][Fd]c d2 =c2 | B6 z2 | %21
 [GB][^FA][GB][FA] [GB]2 [G_e]2 | d4 d4 | [Ed][Ec][Ec][Ec] [Ec]2 [Ed]2 | [Fc]8 | %25
 [Fd][E^c][Fd][Ec] [Fd]2 [G_e]2 | d4 B4 | [Fd][E^c][Fd]c d2 =c2 | B6 z2 | %29
 [GB][^FA][GB][FA] [GB]2 [G_e]2 | d4 f4 | d^cdc d2 =c2 |[M:3/4] B6 |] %33
V:2
 z4 z2 [B,,F,][B,,F,] | [B,,B,]3 [B,,B,] [B,,B,]2 [B,,B,]2 | [B,,B,]4 [B,,F,]2 [D,B,][_E,B,] | %3
 [F,B,F]3 [F,A,_E] [F,B,D]2 [F,A,E]2 | [B,,B,]6 [B,,F,][B,,F,] | %5
 [B,,B,]3 [B,,B,] [B,,B,]2 [B,,B,]2 | [B,,B,]4 [B,,F,]2 [B,,B,][B,,B,] | %7
 [C,B,]3 [C,B,] [C,G,]2 [C,B,]2 | [F,A,]6 [B,,F,][B,,F,] | [B,,B,]3 [B,,B,] [B,,B,]2 [B,,B,]2 | %10
 [B,,B,]4 [B,,F,]2 [D,B,][_E,B,] | [F,B,F]3 [F,A,_E] [F,B,D]2 [F,A,E]2 | [B,,B,]6 [D,B,][D,B,] | %13
 [_E,B,]3 [E,B,] [E,B,]2 [E,B,]2 | %14
[M:9/8][K:treble] [B,F]3- [B,F] [B,DB]2- [B,DB][K:bass][D,B,][_E,B,] | %15
[M:4/4] [F,B,F]3 [F,B,F] [F,B,F]2 [F,A,_E]2 | [B,,B,]6 z2 | %17
 [B,,B,][B,,B,][B,,B,][B,,B,] [B,,B,]2 [B,,B,]2 | [B,F]2 B,2[K:bass] B,,2 B,,2 | %19
 [B,,B,][B,,B,][B,,B,][G,B,E] [F,B,F]2 [F,A,_E]2 | z2 G,2 F,2 z2 | %21
 [_E,_E][E,E][E,E][E,E] [E,E]2 [E,B,]2 | [B,,B,]2 [B,,B,]2 [B,,B,]2 [B,,B,]2 | %23
 [C,B,][C,G,][C,G,][C,G,] [C,G,]2 [C,B,]2 | .D,2 A,6 | %25
 [B,,B,][B,,B,][B,,B,][B,,B,] [B,,B,]2 [B,,B,]2 | [B,,B,]2 [B,,B,]2 [B,,B,]2 [B,,B,]2 | %27
 [B,,B,][B,,B,][B,,B,][G,B,E] [F,B,F]2 [F,A,_E]2 | z2 G,2 F,2 z2 | %29
 [_E,_E][E,E][E,E][E,E] [E,E]2 [E,B,]2 | [B,F]2 B,2 [B,DB]2 [B,D]2 | %31
 [F,B,F][K:bass][G,B,E][F,B,F][G,B,E] [F,B,F]2 [F,A,_E]2 |[M:3/4] z2 G,2 F,2 |] %33
V:3
 x8 | x8 | x8 | x8 | x8 | x8 | x8 | x8 | x8 | x8 | x8 | x8 | x8 | x8 |[M:9/8] x9 |[M:4/4] x8 | x8 | %17
 x8 | z2 F2 [B,D]2 [B,D]2 | x8 | [B,D]2 _E2 D2 z2 | x8 | F2 F2 F2 F2 | x8 | x8 | x8 | F2 F2 D2 D2 | %27
 x8 | [B,D]2 _E2 D2 z2 | x8 | z2 F2 z2 B2 | x8 |[M:3/4] [B,D]2 _E2 D2 |] %33
V:4
 x8 | x8 | x8 | x8 | x8 | x8 | x8 | x8 | x8 | x8 | x8 | x8 | x8 | x8 | %14
[M:9/8][K:treble] x7[K:bass] x2 |[M:4/4] x8 | x8 | x8 | x4[K:bass] x4 | x8 | B,,6 z2 | x8 | x8 | %23
 x8 | A,-[G,A,] z G, F,_E,D,C, | x8 | x8 | x8 | B,,6 z2 | x8 | x8 | x[K:bass] x7 |[M:3/4] B,,6 |] %33

